X:1
T:Ravenshaw, 66.66
T:Ravenshaw, 66.66
T:Ave Hierarchia, 1531, arr by W. H. Monk, 1861
T:Public Domain Courtesy of the Cyber Hymnal™
C:Ave Hierarchia, 1531, arr by W. H. Monk, 1861
Z:Public Domain
Z:Courtesy of the Cyber Hymnal™
%%score ( 1 2 ) 3
L:1/8
Q:1/4=115
M:4/4
K:Eb
V:1 treble 
V:2 treble 
V:3 bass 
V:1
 [B,E]2 [B,E]2 [EG]2 [EA]2 | B4 [EB]4 | [Ec]2 [Fd]2 [Ge]2 [FB]2 | (G2 =A2) [DB]4 | %4
 [EA]2 F2 [EG]2 [EA]2 | ([EG]2 [DF]2) E4 | [B,D]2 [B,E]2 [DF]2 [EG]2 | F4 E4 |] %8
V:2
 x8 | (E2 D2) x4 | x8 | E4 x4 | x8 | x8 | x8 | (E2 D2) E4 |] %8
V:3
 [E,G,]2 [E,G,]2 [E,B,]2 [C,A,]2 | [B,,F,]4 [E,G,]4 | [A,,A,]2 [F,A,]2 [E,B,]2 [D,B,]2 | %3
 ([E,B,]2 [C,E,]2) [B,,F,]4 | [C,E,]2 [D,B,]2 [E,B,]2 [A,,C]2 | [B,,B,]4 [C,G,]4 | %6
 [B,,B,]2 [G,,G,]2 [F,,F,A,]2 [E,,E,B,]2 | [B,,B,]4 [E,G,]4 |] %8

